packages/bpk-svgs/src/icons/sm/passport.svg

<svg xmlns="http://www.w3.org/2000/svg" viewBox="0 0 18 18" enable-background="new 0 0 18 18"><path d="M11.5 2h-8.1c-.2 0-.4.2-.4.4v13.2c0 .2.2.4.4.4h8.1c.8 0 1.5-.7 1.5-1.5v-11c0-.8-.7-1.5-1.5-1.5zm-3.5 11c-1.1 0-2-.9-2-2s.9-2 2-2 2 .9 2 2-.9 2-2 2zm-1-6v-1h2v1h-2zm3-2h-4v-1h4v1zm5-1.5v11c0 .8-.7 1.5-1.5 1.5h-.5v-.1c.6-.2 1-.8 1-1.4v-11c0-.7-.4-1.2-1-1.4v-.1h.5c.8 0 1.5.7 1.5 1.5z"/></svg>

<svg xmlns="http://www.w3.org/2000/svg" viewBox="0 0 18 18"><path d="M11.5 2H3.4c-.2 0-.4.2-.4.4v13.2c0 .2.2.4.4.4h8.1c.8 0 1.5-.7 1.5-1.5v-11c0-.8-.7-1.5-1.5-1.5zM8 13c-1.1 0-2-.9-2-2s.9-2 2-2 2 .9 2 2-.9 2-2 2zM7 7V6h2v1H7zm3-2H6V4h4v1zm5-1.5v11c0 .8-.7 1.5-1.5 1.5H13v-.1c.6-.2 1-.8 1-1.4v-11c0-.7-.4-1.2-1-1.4V2h.5c.8 0 1.5.7 1.5 1.5z"/></svg>
